packages/kaspersky-hexa-ui-icons/src/iconsSVGs/16/Battery.svg

<svg width="16" height="16" viewBox="0 0 16 16" fill="none" xmlns="http://www.w3.org/2000/svg">
<path fill-rule="evenodd" clip-rule="evenodd" d="M5.16231 15.4102C4.44434 15.4102 3.86231 14.8281 3.86231 14.1102L3.8623 3.15675C3.8623 2.43878 4.44433 1.85675 5.1623 1.85675L5.90463 1.85675C6.01667 1.13909 6.63751 0.589972 7.38661 0.589972L8.61321 0.589972C9.36231 0.589972 9.98316 1.13909 10.0952 1.85675L10.8375 1.85675C11.5554 1.85675 12.1375 2.43878 12.1375 3.15675L12.1375 14.1102C12.1375 14.8281 11.5554 15.4102 10.8375 15.4102L5.16231 15.4102ZM5.16231 14.1102L10.8375 14.1102L10.8375 3.15675L5.1623 3.15675L5.16231 14.1102Z" fill="black"/>
</svg>

<svg xmlns="http://www.w3.org/2000/svg" width="16" height="16" fill="none" viewBox="0 0 16 16"><path d="M0 16V0h16v16z"/><path fill="#000" fill-rule="evenodd" d="M5.1624 15.4101c-.718 0-1.3-.582-1.3-1.3V3.1567c0-.718.582-1.3 1.3-1.3h.7424c.112-.7177.7328-1.2668 1.482-1.2668h1.2265c.7491 0 1.37.5491 1.482 1.2668h.7423c.718 0 1.3.582 1.3 1.3v10.9534c0 .718-.582 1.3-1.3 1.3zm0-1.3h5.6752V3.1567H5.1624z"/></svg>
